X: 21158
T: Kathleen Katz'
R: jig
M: 6/8
K: Eminor
|:edB BAG|ABA DEF|GFG AGA|Bee efg|
edB BAG|ABA DEF|GFG AGA|1 BGE E2d:|2 BGE E2D||
EGE EFG|FAF DEF|GFG AGA|BGE FED|
EGE EFG|FAF DEF|GFE DFD|EGE E2D|
EGE EFG|FAF DEF|GFG AGA|Bee efg|
edB BAG|ABA DEF|GFE DFD|EGE E2D||

